X:1
T:Title
%%score ( 1 2 ) { 3 | 4 }
L:1/8
Q:1/4=105
M:6/4
K:Eb
V:1 treble nm="French Horn, Soprano"
V:2 treble 
V:3 bass nm="Choir Pad, Anchored at Last"
V:4 bass 
V:1
 GG G2 E2 G2 F4 | FF F2 B,2 F2 E4 | EE E2 A2 c2 e2 d2 | c2 B4- B4- B3/2 z/ | BB B2 G2 B2 A4 | %5
w: By~Lelia~Naylor~Morris * * * * *|||||
 AA A2 F2 A2 G4 | EE F2 G2 A2 G2 G2 | F2 E4- E4- E3/2 z/ | z2 e4- e4- e3/2 z/ | %9
w: ||||
 z2 e4- e4- e3/2 z/ | [Ae][Ae] [Ae]2 [Bd]2 [Ac]2 [GB]2 [EG]2 | E2 G2 F2 E2 [DB]4 | %12
w: |||
 [DB][DB] [EB]2 [E=A]2 [EB]2 [EG]4 | [_DE][DE] [EA]2 [EB]2 [Ec]2 [EB]4 | %14
w: ||
 [Ge][Ge] [Ge]2 [GB]2 [EG]2 [DB] [DA]3 | z2 E4- E6- | E6 z6 |] %17
w: |||
V:2
 x12 | x12 | x12 | x12 | x12 | x12 | x12 | x12 | [GB]2 G3 G G2 G2 E2 | [Ge]2 A2 A2 A2 A4 | x12 | %11
 x12 | x12 | x12 | x12 | [B,D]2 B,4 C2 B,4- | B,6 z6 |] %17
V:3
 B,B, B,2 G,2 B,2 A,4 | A,A, A,2 A,2 A,2 G,4 | _DD C2 C2 A,2 C2[K:bass] B,2 | A,2 G,4- G,2 G,4 | %4
 G,G, G,2 B,2 G,2 .F,4 | F,F, F,2 A,2 C2 B,4 | z2 G,2 G,2 F,2 B,2 B,2 | A,2 G,4- G,4- G,3/2 z/ | %8
 E2 B,3 B, B,2 B,2 G,2 | B,2[K:treble] C2 C2 C2 C4 | CC B,2 C2 D2 E2[K:bass] B,2 | %11
 E,2 G,2 F,2 E,2 F,4 | F,A, G,2 _G,2 =G,2 B,4 | G,G, A,2 G,2 A,2 G,4 | B,B, B,2 B,2 B,2 F, B,3 | %15
 A,2 G,4 A,2 G,4- | G,6 z6 |] %17
V:4
 z2 E,,B,, E,2- E,3/2 z/ D,4 | z2 B,,D, F,2 B,,2 E,4 | z2 A,,E, A,2 z2 A,,4 | %3
 z2 E,,B,, D,2 z2 E,4 | z2 B,,4 z2 B,,D, F,2 | B,,2 B,,4 z2 E,,B,, E,2 | G,G, .A,,4 F,,2 B,,4 | %7
 z2 E,4 B,,2 E,,4 | E,2 E,3 E, E,2 E,2 E,2 | E,2 A,2 A,2 A,2 A,4 | A,A, E,2 E,2 E,2 E,2 E,2 | %11
 z6 z2 B,,4 | B,,B,, E,2 E,2 E,2 E,4 | E,E, C,2 B,,2 A,,2 E,4 | E,E, B,,2 B,,2 B,,2 B,, B,,3 | %15
 B,,2 E,4- E,6- | E,6 z6 |] %17

